Papirus-GTK/16x16/apps/xfce4-systray.svg

<svg height="16" viewBox="0 0 16 16" width="16" xmlns="http://www.w3.org/2000/svg"><path d="m .80078125 1c-.4432 0-.80078125.0704719-.80078125.5136719v.8007812 8.6855469h16v-8.6855469-.8007812c0-.4432-.357581-.5136719-.800781-.5136719z" fill="#4ab3e4"/><path d="m .80000004 15c-.4432 0-.8-.3568-.8-.8v-3.2h15.99999996v3.2c0 .4432-.3568.8-.8.8z" fill="#4d4d4d"/><circle cx="9" cy="12.999983" fill="#fff" opacity=".72000002" r="1"/><circle cx="12" cy="12.999983" fill="#fff" opacity=".72000002" r="1"/><circle cx="15" cy="12.999983" fill="#fff" opacity=".72000002" r="1"/></svg>

<?xml version="1.0" encoding="UTF-8" standalone="no"?>
<svg
   xmlns:dc="http://purl.org/dc/elements/1.1/"
   xmlns:cc="http://creativecommons.org/ns#"
   xmlns:rdf="http://www.w3.org/1999/02/22-rdf-syntax-ns#"
   xmlns:svg="http://www.w3.org/2000/svg"
   xmlns="http://www.w3.org/2000/svg"
   xmlns:sodipodi="http://sodipodi.sourceforge.net/DTD/sodipodi-0.dtd"
   xmlns:inkscape="http://www.inkscape.org/namespaces/inkscape"
   version="1.1"
   id="svg4222"
   viewBox="0 0 16 16"
   height="16"
   width="16"
   inkscape:version="0.91 r13725"
   sodipodi:docname="xfce4-systray.svg">
  <sodipodi:namedview
     pagecolor="#ffffff"
     bordercolor="#666666"
     borderopacity="1"
     objecttolerance="10"
     gridtolerance="10"
     guidetolerance="10"
     inkscape:pageopacity="0"
     inkscape:pageshadow="2"
     inkscape:window-width="1600"
     inkscape:window-height="843"
     id="namedview11"
     showgrid="false"
     inkscape:zoom="39.352539"
     inkscape:cx="3.7944264"
     inkscape:cy="8"
     inkscape:window-x="0"
     inkscape:window-y="0"
     inkscape:window-maximized="1"
     inkscape:current-layer="svg4222" />
  <defs
     id="defs4224" />
  <metadata
     id="metadata4227">
    <rdf:RDF>
      <cc:Work
         rdf:about="">
        <dc:format>image/svg+xml</dc:format>
        <dc:type
           rdf:resource="http://purl.org/dc/dcmitype/StillImage" />
        <dc:title />
      </cc:Work>
    </rdf:RDF>
  </metadata>
  <path
     style="fill:#4ab3e4;fill-opacity:1;stroke:none"
     d="M 0.80078125 1 C 0.35758125 1 1.4802974e-16 1.0704719 0 1.5136719 L 0 2.3144531 L 0 11 L 16 11 L 16 2.3144531 L 16 1.5136719 C 16 1.0704719 15.642419 1 15.199219 1 L 0.80078125 1 z "
     id="rect4203" />
  <path
     inkscape:connector-curvature="0"
     style="fill:#4d4d4d;fill-opacity:1;stroke:none"
     d="m 0.80000004,15 c -0.4432,0 -0.8,-0.3568 -0.8,-0.8 L 4e-8,11 16,11 l 0,3.2 c 0,0.4432 -0.3568,0.8 -0.8,0.8 z"
     id="rect3328" />
  <circle
     style="opacity:0.72000002;fill:#ffffff;fill-opacity:1;stroke:none;stroke-width:2;stroke-linecap:round;stroke-linejoin:round;stroke-miterlimit:4;stroke-dasharray:none;stroke-opacity:1"
     id="path4136"
     cx="9"
     cy="12.999983"
     r="1" />
  <circle
     r="1"
     cy="12.999983"
     cx="12"
     id="circle4353"
     style="opacity:0.72000002;fill:#ffffff;fill-opacity:1;stroke:none;stroke-width:2;stroke-linecap:round;stroke-linejoin:round;stroke-miterlimit:4;stroke-dasharray:none;stroke-opacity:1" />
  <circle
     style="opacity:0.72000002;fill:#ffffff;fill-opacity:1;stroke:none;stroke-width:2;stroke-linecap:round;stroke-linejoin:round;stroke-miterlimit:4;stroke-dasharray:none;stroke-opacity:1"
     id="circle4355"
     cx="15"
     cy="12.999983"
     r="1" />
</svg>
